img/03.svg

<svg width="160" height="80" viewBox="0 0 160 80" fill="none" xmlns="http://www.w3.org/2000/svg">
<path d="M98.6657 60.7921L83.2573 17.9283L83.2467 17.9H82.9426L79.7697 26.7084L73.9932 42.7442L73.9797 42.7315C71.9776 40.9466 69.1531 39.8308 65.596 39.4153L64.5109 39.3022L65.5873 39.1627C71.4535 38.0976 75.3968 34.3542 75.3968 29.8442C75.3968 23.6595 69.6397 19.3426 61.393 19.3426H44.2345V19.6557H49.2204V51.613L37.1115 17.9283L37.1009 17.9H36.7968L33.6238 26.7084L21.3856 60.6819L21.3103 60.6906C21.1011 60.7167 20.8942 60.7374 20.6896 60.7531C20.3816 60.7774 20.0756 60.7921 19.7687 60.7921H7.40299L30.9084 19.6557L31.0831 19.3465H2.33509V32.0719H2.64013C2.69419 25.8735 6.26682 19.6557 14.1602 19.6557H23.683L0 61.1003H31.9055V48.9084H31.6005C31.559 54.3109 28.5279 59.4422 21.9368 60.6009L21.7273 60.637L26.7469 46.6963H40.8086L45.8756 60.7921H40.8772V61.1003H60.4952V60.7921H55.4756V39.5294H61.2675C67.1617 39.5294 70.5422 42.1902 70.5422 46.827V50.5987C70.5422 51.0142 70.5702 51.6218 70.6011 52.13V52.1485L67.488 60.7901H63.4211V61.0983H71.8396V60.7901H67.8162L70.6513 52.921C70.6571 52.9971 70.66 53.0429 70.66 53.0429L70.7382 53.752L70.8135 54.2211C71.2865 57.1228 72.385 59.2559 74.0772 60.5609L74.3205 60.7394C75.6063 61.6426 77.2039 62.1 79.0717 62.1C81.5458 62.1 83.1956 61.4768 84.5576 60.0098L84.379 59.8401C83.1241 61.0106 82.071 61.4846 80.7514 61.4846C78.5032 61.4846 77.3265 58.7292 77.3265 56.0119V50.7274C77.3384 49.4162 77.1352 48.112 76.7251 46.868L76.6691 46.7041V46.6982H86.9545L92.0214 60.794H87.023V61.1022H104V60.794L98.6657 60.7921ZM26.8589 46.3881L33.786 27.159L40.6976 46.3881H26.8589ZM55.4785 39.2202V19.6557H59.8996C65.8054 19.6557 68.9234 23.203 68.9234 29.9105C68.9234 37.0442 67.1337 39.2202 61.2675 39.2202H55.4785ZM76.5494 46.3881L76.5195 46.312C76.0624 45.1872 75.397 44.161 74.5589 43.2884L74.2693 42.9958L74.2384 42.9666L79.928 27.159L86.8396 46.3881H76.5494Z" fill="#3C2829"/>
</svg>

<svg xmlns="http://www.w3.org/2000/svg" width="160" height="80" fill="none"  xmlns:v="https://vecta.io/nano"><path d="M98.666 60.792L83.247 17.9h-.304l-8.949 24.844c-2.016-1.798-4.84-2.913-8.397-3.329l-1.085-.113 1.076-.139c5.866-1.065 9.81-4.809 9.81-9.318 0-6.185-5.757-10.502-14.004-10.502H44.235v.313h4.986v31.957L37.101 17.9h-.304L21.386 60.682l-.075.009a13.12 13.12 0 0 1-.621.063 11.69 11.69 0 0 1-.921.039H7.403l23.68-41.446H2.335v12.725h.305c.054-6.198 3.627-12.416 11.52-12.416h9.523L0 61.1h31.906V48.908h-.305c-.041 5.402-3.073 10.534-9.664 11.693l-.21.036 5.02-13.941h14.062l5.067 14.096h-4.998v.308h19.618v-.308h-5.02V39.529h5.792c5.894 0 9.275 2.661 9.275 7.298v3.772c0 .416.028 1.023.059 1.531v.018l-3.113 8.642h-4.067v.308h8.419v-.308h-4.023l2.835-7.869.009.122.078.709.075.469c.473 2.902 1.572 5.035 3.264 6.34l.243.179c1.286.903 2.883 1.361 4.751 1.361 2.474 0 4.124-.623 5.486-2.09l-.179-.17c-1.255 1.17-2.308 1.645-3.628 1.645-2.248 0-3.425-2.755-3.425-5.473v-5.284a11.98 11.98 0 0 0-.601-3.859l-.056-.164v-.006h10.285l5.067 14.096h-4.998v.308H104v-.308l-5.334-.002zM26.859 46.388l6.927-19.229 6.912 19.229H26.859zm28.62-7.168V19.656H59.9c5.906 0 9.024 3.547 9.024 10.255 0 7.134-1.79 9.31-7.656 9.31h-5.789zm21.071 7.168l-.03-.076a9.56 9.56 0 0 0-1.961-3.024l-.29-.293-.031-.029 5.69-15.808 6.912 19.229h-10.29z" fill="#3c2829"/></svg>
